img/icons/icon-lorry.svg

<svg width="82" height="52" viewBox="0 0 82 52" fill="none" xmlns="http://www.w3.org/2000/svg">
<path d="M80.6664 24.0056C79.8139 22.987 78.651 22.3251 77.3179 22.0776L76.6917 13.5574C77.3094 13.5515 77.8362 13.1054 77.9438 12.4942L78.1853 11.1213C78.4441 9.64958 78.0831 8.19685 77.1947 7.13571C76.3075 6.0757 75.0084 5.49175 73.5368 5.49175H64.1109L64.5698 2.88347C64.7 2.14266 64.5113 1.40296 64.0523 0.854493C63.5978 0.311484 62.9144 0 62.1773 0H15.7792C14.4072 0 13.1442 1.07012 12.9038 2.43664L8.79883 25.7766C8.67583 26.4766 9.14205 27.1442 9.84033 27.2675C9.9156 27.2809 9.99055 27.2873 10.0647 27.2873C10.676 27.2873 11.2178 26.8478 11.3275 26.2234L15.4327 2.88347C15.4597 2.72982 15.657 2.57408 15.7791 2.57408L62.0166 2.57424L57.9356 25.7766C57.8124 26.4766 58.2787 27.1442 58.9771 27.2675C59.6746 27.3907 60.3413 26.9235 60.4643 26.2234L60.7603 24.5409H76.1138C76.1143 24.5409 76.115 24.5409 76.1156 24.5409C76.1162 24.5409 76.1169 24.5409 76.1174 24.5409C77.1786 24.5411 78.0954 24.9385 78.6994 25.6599C79.115 26.1565 79.3575 26.7746 79.4158 27.4584H75.151C74.5278 27.4584 73.9948 27.9069 73.8865 28.5221L73.4037 31.268C73.2091 32.3743 73.4839 33.4704 74.1575 34.2753C74.8219 35.0692 75.8304 35.5244 76.9241 35.5244H78.1329L77.1368 41.1878H73.747C73.5239 40.0551 73.0356 39.0132 72.2955 38.1293C70.9824 36.5602 69.05 35.6962 66.8547 35.6962C63.3346 35.6962 59.9385 38.0051 58.3486 41.188H57.8325L59.4986 31.7152C59.6216 31.0151 59.1555 30.3475 58.4571 30.2242C57.7591 30.1006 57.0929 30.5681 56.9699 31.2683L55.2251 41.1881H31.4576C31.2345 40.0554 30.7462 39.0137 30.0061 38.1297C28.6928 36.5605 26.7605 35.6965 24.5651 35.6965C21.045 35.6965 17.6489 38.0054 16.059 41.1883L8.69537 41.1881L9.20851 38.2708H14.9788C15.6878 38.2708 16.2628 37.6945 16.2628 36.9836C16.2628 36.2728 15.688 35.6964 14.9788 35.6964H1.28397C0.574961 35.6964 0 36.2726 0 36.9836C0 37.6944 0.574801 38.2708 1.28397 38.2708H6.60133L6.14248 40.8791C6.01227 41.6199 6.20093 42.3596 6.65994 42.908C7.11447 43.451 7.79785 43.7625 8.53489 43.7625H15.2253C14.8772 45.946 15.4003 48.0029 16.7096 49.5669C18.0229 51.136 19.9552 52 22.1506 52C26.5203 52 30.7009 48.4435 31.4698 44.0716C31.4879 43.968 31.5021 43.8651 31.5165 43.7624H57.5149C57.1667 45.9456 57.6898 48.0026 58.9992 49.5667C60.3125 51.1359 62.2448 51.9998 64.4402 51.9998C68.8099 51.9998 72.9905 48.4433 73.7594 44.0714C73.7775 43.9679 73.7917 43.865 73.8061 43.7622H78.2144C78.8376 43.7622 79.3706 43.3138 79.4789 42.6985L81.8937 28.9691C82.2214 27.1055 81.7856 25.3428 80.6664 24.0056ZM61.2134 21.9672L62.6924 13.5579H74.1173L74.7354 21.9672H61.2134ZM75.6564 10.6744L75.602 10.9837H63.145L63.6582 8.06615H73.5368C74.2362 8.06615 74.8367 8.32337 75.2275 8.79043C75.6327 9.27435 75.7852 9.94324 75.6564 10.6744ZM28.9411 43.6249C28.3786 46.8237 25.3323 49.4259 22.1506 49.4259C20.7274 49.4259 19.4936 48.8884 18.6766 47.9125C17.8361 46.9082 17.5158 45.5444 17.7748 44.0721C18.3374 40.8733 21.3836 38.2711 24.5653 38.2711C25.9884 38.2711 27.2223 38.8087 28.0392 39.7847C28.8797 40.7887 29.2 42.1526 28.9411 43.6249ZM71.2305 43.6249C70.6679 46.8237 67.6217 49.4259 64.44 49.4259C63.0169 49.4259 61.783 48.8884 60.9661 47.9123C60.1256 46.908 59.8053 45.5443 60.0642 44.0719C60.6267 40.8731 63.673 38.2709 66.8547 38.2709C68.2777 38.2709 69.5117 38.8085 70.3287 39.7845C71.1692 40.7887 71.4895 42.1526 71.2305 43.6249ZM78.5857 32.9508H76.9241V32.9507C76.5815 32.9507 76.3051 32.8367 76.1246 32.6212C75.9373 32.3974 75.869 32.0758 75.9324 31.7156L76.2283 30.0335H79.0988L78.5857 32.9508Z" fill="#AE7C78"/>
<path d="M25.4748 42.0427C25.0202 41.4997 24.3368 41.1882 23.5996 41.1882C22.2276 41.1882 20.9646 42.2584 20.7242 43.6249C20.594 44.3657 20.7827 45.1054 21.2417 45.6539C21.6962 46.1969 22.3796 46.5083 23.1166 46.5083C24.4887 46.5083 25.7517 45.4381 25.9921 44.0719C26.1224 43.3309 25.9339 42.5914 25.4748 42.0427Z" fill="#AE7C78"/>
<path d="M67.7637 42.0427C67.309 41.4997 66.6256 41.1882 65.8888 41.1882C64.5167 41.1882 63.2537 42.2584 63.0135 43.6247C62.8833 44.3657 63.0716 45.1052 63.5308 45.6539C63.9853 46.1969 64.6687 46.5083 65.4057 46.5083C66.7778 46.5083 68.0408 45.4381 68.2812 44.0719C68.4116 43.3309 68.2229 42.5914 67.7637 42.0427Z" fill="#AE7C78"/>
<path d="M51.7904 35.6965H35.5212C34.8122 35.6965 34.2372 36.2728 34.2372 36.9837C34.2372 37.6945 34.812 38.2709 35.5212 38.2709H51.7904C52.4994 38.2709 53.0744 37.6947 53.0744 36.9837C53.0742 36.2728 52.4994 35.6965 51.7904 35.6965Z" fill="#AE7C78"/>
<path d="M28.6739 30.2048H4.98899C4.27998 30.2048 3.70502 30.7811 3.70502 31.492C3.70502 32.2028 4.27966 32.7792 4.98899 32.7792H28.6739C29.3829 32.7792 29.9578 32.203 29.9578 31.492C29.9578 30.7811 29.383 30.2048 28.6739 30.2048Z" fill="#AE7C78"/>
<path d="M53.1922 25.0263L48.4387 20.9075C47.9022 20.4429 47.0915 20.5018 46.6277 21.0397C46.1639 21.5775 46.223 22.3903 46.7595 22.8553L48.9036 24.7132H16.3482C15.6392 24.7132 15.0642 25.2895 15.0642 26.0004C15.0642 26.7112 15.639 27.2876 16.3482 27.2876H48.0894L45.4412 29.0464C44.8499 29.4388 44.6883 30.2376 45.0799 30.8302C45.3269 31.2042 45.7353 31.4066 46.1514 31.4066C46.3948 31.4066 46.6411 31.3373 46.8593 31.1923L53.0616 27.0735C53.3967 26.8513 53.6082 26.4845 53.6339 26.0825C53.6595 25.6803 53.4961 25.2895 53.1922 25.0263Z" fill="#AE7C78"/>
</svg>

<svg width="82" height="52" fill="none" xmlns="http://www.w3.org/2000/svg"><path d="M80.666 24.006c-.852-1.019-2.015-1.68-3.348-1.928l-.626-8.52a1.285 1.285 0 001.252-1.064l.241-1.373c.26-1.471-.102-2.924-.99-3.985-.887-1.06-2.187-1.644-3.658-1.644H64.11l.459-2.609c.13-.74-.059-1.48-.518-2.029A2.43 2.43 0 0062.177 0H15.78c-1.372 0-2.635 1.07-2.875 2.437l-4.105 23.34a1.287 1.287 0 001.266 1.51c.611 0 1.153-.44 1.263-1.064l4.105-23.34c.027-.153.224-.309.346-.309h46.238l-4.081 23.203a1.285 1.285 0 102.529.447l.295-1.683h15.357c1.062 0 1.978.398 2.582 1.119.416.497.659 1.115.717 1.798H75.15c-.623 0-1.156.449-1.264 1.064l-.483 2.746c-.195 1.106.08 2.202.754 3.007.664.794 1.672 1.25 2.766 1.25h1.209l-.996 5.663h-3.39a6.766 6.766 0 00-1.451-3.059c-1.314-1.569-3.246-2.433-5.441-2.433-3.52 0-6.917 2.31-8.506 5.492h-.516l1.666-9.473a1.284 1.284 0 10-2.529-.447l-1.745 9.92H31.458a6.766 6.766 0 00-1.452-3.058c-1.313-1.57-3.245-2.434-5.44-2.434-3.521 0-6.917 2.31-8.507 5.492H8.695l.514-2.917h5.77c.709 0 1.284-.577 1.284-1.287 0-.711-.575-1.288-1.284-1.288H1.284c-.709 0-1.284.577-1.284 1.288 0 .71.575 1.287 1.284 1.287h5.317l-.459 2.608c-.13.74.059 1.48.518 2.029a2.43 2.43 0 001.875.855h6.69c-.348 2.183.175 4.24 1.485 5.804C18.023 51.136 19.955 52 22.15 52c4.37 0 8.55-3.556 9.32-7.928.018-.104.032-.207.047-.31h25.998c-.348 2.184.175 4.24 1.484 5.805C60.312 51.136 62.245 52 64.44 52c4.37 0 8.55-3.557 9.32-7.929.017-.103.032-.206.046-.309h4.408c.624 0 1.157-.448 1.265-1.063l2.415-13.73c.327-1.864-.108-3.626-1.228-4.963zm-19.453-2.039l1.48-8.41h11.424l.618 8.41H61.213zm14.443-11.293l-.054.31H63.145l.513-2.918h9.879c.7 0 1.3.257 1.69.724.406.484.558 1.153.43 1.884zm-46.715 32.95c-.562 3.2-3.609 5.802-6.79 5.802-1.424 0-2.657-.538-3.474-1.514-.84-1.004-1.161-2.368-.902-3.84.562-3.199 3.609-5.8 6.79-5.8 1.423 0 2.657.537 3.474 1.513.84 1.004 1.161 2.368.902 3.84zm42.29 0c-.563 3.2-3.61 5.802-6.791 5.802-1.423 0-2.657-.538-3.474-1.514-.84-1.004-1.16-2.368-.902-3.84.563-3.199 3.609-5.801 6.79-5.801 1.424 0 2.658.538 3.475 1.514.84 1.004 1.16 2.368.902 3.84zm7.355-10.673h-1.662c-.343 0-.619-.114-.8-.33-.187-.224-.255-.545-.192-.905l.296-1.683h2.87l-.512 2.918z" fill="#AE7C78"/><path d="M25.475 42.043a2.43 2.43 0 00-1.875-.855c-1.372 0-2.635 1.07-2.876 2.437-.13.74.059 1.48.518 2.029a2.43 2.43 0 001.875.854c1.372 0 2.635-1.07 2.875-2.436.13-.741-.058-1.48-.517-2.03zM67.764 42.043a2.43 2.43 0 00-1.875-.855c-1.372 0-2.635 1.07-2.875 2.437-.13.74.058 1.48.517 2.029a2.43 2.43 0 001.875.854c1.372 0 2.635-1.07 2.875-2.436.13-.741-.058-1.48-.517-2.03zM51.79 35.697H35.521c-.709 0-1.284.576-1.284 1.287 0 .71.575 1.287 1.284 1.287h16.27c.708 0 1.283-.576 1.283-1.287s-.575-1.288-1.284-1.288zM28.674 30.205H4.989c-.709 0-1.284.576-1.284 1.287 0 .71.575 1.287 1.284 1.287h23.685c.709 0 1.284-.576 1.284-1.287 0-.71-.575-1.287-1.284-1.287zM53.192 25.026l-4.753-4.119a1.282 1.282 0 00-1.811.133 1.29 1.29 0 00.132 1.815l2.144 1.858H16.348c-.709 0-1.284.576-1.284 1.287s.575 1.288 1.284 1.288H48.09l-2.648 1.758a1.289 1.289 0 00.71 2.36c.244 0 .49-.069.708-.214l6.203-4.119a1.287 1.287 0 00.13-2.047z" fill="#AE7C78"/></svg>
